<?xml version="1.0" encoding="UTF-8"?>
<map version="1.0.0" orientation="orthogonal" renderorder="right-down" width="50" height="10" tilewidth="16" tileheight="16" nextobjectid="136">
 <tileset firstgid="1" name="tail1" tilewidth="16" tileheight="16" tilecount="702" columns="39">
  <image source="tileset.png" trans="6d9fb9" width="630" height="302"/>
 </tileset>
 <layer name="Тайлы" width="50" height="10">
  <data>
   <tile gid="625"/>
   <tile gid="625"/>
   <tile gid="625"/>
   <tile gid="625"/>
   <tile gid="625"/>
   <tile gid="625"/>
   <tile gid="625"/>
   <tile gid="625"/>
   <tile gid="625"/>
   <tile gid="625"/>
   <tile gid="625"/>
   <tile gid="625"/>
   <tile gid="625"/>
   <tile gid="625"/>
   <tile gid="625"/>
   <tile gid="625"/>
   <tile gid="625"/>
   <tile gid="625"/>
   <tile gid="625"/>
   <tile gid="625"/>
   <tile gid="625"/>
   <tile gid="625"/>
   <tile gid="625"/>
   <tile gid="625"/>
   <tile gid="625"/>
   <tile gid="625"/>
   <tile gid="625"/>
   <tile gid="625"/>
   <tile gid="625"/>
   <tile gid="625"/>
   <tile gid="625"/>
   <tile gid="625"/>
   <tile gid="625"/>
   <tile gid="625"/>
   <tile gid="625"/>
   <tile gid="625"/>
   <tile gid="625"/>
   <tile gid="625"/>
   <tile gid="625"/>
   <tile gid="625"/>
   <tile gid="625"/>
   <tile gid="625"/>
   <tile gid="625"/>
   <tile gid="625"/>
   <tile gid="625"/>
   <tile gid="625"/>
   <tile gid="625"/>
   <tile gid="625"/>
   <tile gid="625"/>
   <tile gid="625"/>
   <tile gid="625"/>
   <tile gid="625"/>
   <tile gid="625"/>
   <tile gid="625"/>
   <tile gid="625"/>
   <tile gid="625"/>
   <tile gid="625"/>
   <tile gid="625"/>
   <tile gid="625"/>
   <tile gid="0"/>
   <tile gid="0"/>
   <tile gid="0"/>
   <tile gid="0"/>
   <tile gid="0"/>
   <tile gid="625"/>
   <tile gid="625"/>
   <tile gid="625"/>
   <tile gid="625"/>
   <tile gid="625"/>
   <tile gid="625"/>
   <tile gid="625"/>
   <tile gid="625"/>
   <tile gid="625"/>
   <tile gid="625"/>
   <tile gid="625"/>
   <tile gid="625"/>
   <tile gid="625"/>
   <tile gid="625"/>
   <tile gid="625"/>
   <tile gid="625"/>
   <tile gid="625"/>
   <tile gid="625"/>
   <tile gid="625"/>
   <tile gid="625"/>
   <tile gid="625"/>
   <tile gid="486"/>
   <tile gid="487"/>
   <tile gid="487"/>
   <tile gid="487"/>
   <tile gid="487"/>
   <tile gid="487"/>
   <tile gid="487"/>
   <tile gid="487"/>
   <tile gid="487"/>
   <tile gid="487"/>
   <tile gid="487"/>
   <tile gid="487"/>
   <tile gid="487"/>
   <tile gid="487"/>
   <tile gid="488"/>
   <tile gid="625"/>
   <tile gid="625"/>
   <tile gid="625"/>
   <tile gid="625"/>
   <tile gid="625"/>
   <tile gid="625"/>
   <tile gid="625"/>
   <tile gid="0"/>
   <tile gid="0"/>
   <tile gid="0"/>
   <tile gid="625"/>
   <tile gid="625"/>
   <tile gid="356"/>
   <tile gid="357"/>
   <tile gid="625"/>
   <tile gid="625"/>
   <tile gid="625"/>
   <tile gid="625"/>
   <tile gid="625"/>
   <tile gid="625"/>
   <tile gid="625"/>
   <tile gid="625"/>
   <tile gid="625"/>
   <tile gid="625"/>
   <tile gid="625"/>
   <tile gid="625"/>
   <tile gid="625"/>
   <tile gid="625"/>
   <tile gid="625"/>
   <tile gid="625"/>
   <tile gid="625"/>
   <tile gid="625"/>
   <tile gid="625"/>
   <tile gid="625"/>
   <tile gid="625"/>
   <tile gid="525"/>
   <tile gid="0"/>
   <tile gid="0"/>
   <tile gid="0"/>
   <tile gid="0"/>
   <tile gid="0"/>
   <tile gid="0"/>
   <tile gid="0"/>
   <tile gid="0"/>
   <tile gid="0"/>
   <tile gid="0"/>
   <tile gid="0"/>
   <tile gid="0"/>
   <tile gid="0"/>
   <tile gid="527"/>
   <tile gid="625"/>
   <tile gid="100"/>
   <tile gid="625"/>
   <tile gid="625"/>
   <tile gid="625"/>
   <tile gid="625"/>
   <tile gid="625"/>
   <tile gid="625"/>
   <tile gid="625"/>
   <tile gid="625"/>
   <tile gid="625"/>
   <tile gid="625"/>
   <tile gid="395"/>
   <tile gid="396"/>
   <tile gid="625"/>
   <tile gid="625"/>
   <tile gid="625"/>
   <tile gid="625"/>
   <tile gid="625"/>
   <tile gid="625"/>
   <tile gid="625"/>
   <tile gid="625"/>
   <tile gid="625"/>
   <tile gid="625"/>
   <tile gid="625"/>
   <tile gid="625"/>
   <tile gid="625"/>
   <tile gid="625"/>
   <tile gid="625"/>
   <tile gid="625"/>
   <tile gid="625"/>
   <tile gid="625"/>
   <tile gid="625"/>
   <tile gid="625"/>
   <tile gid="625"/>
   <tile gid="525"/>
   <tile gid="0"/>
   <tile gid="0"/>
   <tile gid="0"/>
   <tile gid="0"/>
   <tile gid="0"/>
   <tile gid="0"/>
   <tile gid="0"/>
   <tile gid="0"/>
   <tile gid="0"/>
   <tile gid="0"/>
   <tile gid="0"/>
   <tile gid="0"/>
   <tile gid="0"/>
   <tile gid="527"/>
   <tile gid="625"/>
   <tile gid="175"/>
   <tile gid="176"/>
   <tile gid="177"/>
   <tile gid="625"/>
   <tile gid="625"/>
   <tile gid="625"/>
   <tile gid="625"/>
   <tile gid="0"/>
   <tile gid="625"/>
   <tile gid="625"/>
   <tile gid="625"/>
   <tile gid="625"/>
   <tile gid="625"/>
   <tile gid="625"/>
   <tile gid="625"/>
   <tile gid="625"/>
   <tile gid="625"/>
   <tile gid="625"/>
   <tile gid="625"/>
   <tile gid="625"/>
   <tile gid="625"/>
   <tile gid="625"/>
   <tile gid="625"/>
   <tile gid="625"/>
   <tile gid="625"/>
   <tile gid="625"/>
   <tile gid="625"/>
   <tile gid="625"/>
   <tile gid="625"/>
   <tile gid="625"/>
   <tile gid="625"/>
   <tile gid="625"/>
   <tile gid="625"/>
   <tile gid="625"/>
   <tile gid="525"/>
   <tile gid="0"/>
   <tile gid="0"/>
   <tile gid="0"/>
   <tile gid="0"/>
   <tile gid="0"/>
   <tile gid="0"/>
   <tile gid="0"/>
   <tile gid="0"/>
   <tile gid="0"/>
   <tile gid="0"/>
   <tile gid="0"/>
   <tile gid="0"/>
   <tile gid="0"/>
   <tile gid="527"/>
   <tile gid="625"/>
   <tile gid="625"/>
   <tile gid="625"/>
   <tile gid="625"/>
   <tile gid="625"/>
   <tile gid="625"/>
   <tile gid="625"/>
   <tile gid="625"/>
   <tile gid="0"/>
   <tile gid="625"/>
   <tile gid="625"/>
   <tile gid="625"/>
   <tile gid="625"/>
   <tile gid="625"/>
   <tile gid="625"/>
   <tile gid="625"/>
   <tile gid="625"/>
   <tile gid="625"/>
   <tile gid="625"/>
   <tile gid="625"/>
   <tile gid="625"/>
   <tile gid="625"/>
   <tile gid="625"/>
   <tile gid="625"/>
   <tile gid="625"/>
   <tile gid="625"/>
   <tile gid="625"/>
   <tile gid="625"/>
   <tile gid="625"/>
   <tile gid="625"/>
   <tile gid="625"/>
   <tile gid="625"/>
   <tile gid="625"/>
   <tile gid="625"/>
   <tile gid="625"/>
   <tile gid="525"/>
   <tile gid="0"/>
   <tile gid="0"/>
   <tile gid="0"/>
   <tile gid="0"/>
   <tile gid="0"/>
   <tile gid="0"/>
   <tile gid="0"/>
   <tile gid="0"/>
   <tile gid="0"/>
   <tile gid="0"/>
   <tile gid="0"/>
   <tile gid="0"/>
   <tile gid="0"/>
   <tile gid="527"/>
   <tile gid="625"/>
   <tile gid="625"/>
   <tile gid="625"/>
   <tile gid="625"/>
   <tile gid="625"/>
   <tile gid="625"/>
   <tile gid="128"/>
   <tile gid="129"/>
   <tile gid="130"/>
   <tile gid="625"/>
   <tile gid="625"/>
   <tile gid="0"/>
   <tile gid="625"/>
   <tile gid="12"/>
   <tile gid="625"/>
   <tile gid="625"/>
   <tile gid="12"/>
   <tile gid="625"/>
   <tile gid="625"/>
   <tile gid="625"/>
   <tile gid="0"/>
   <tile gid="0"/>
   <tile gid="625"/>
   <tile gid="625"/>
   <tile gid="625"/>
   <tile gid="625"/>
   <tile gid="625"/>
   <tile gid="625"/>
   <tile gid="625"/>
   <tile gid="625"/>
   <tile gid="625"/>
   <tile gid="625"/>
   <tile gid="625"/>
   <tile gid="625"/>
   <tile gid="625"/>
   <tile gid="525"/>
   <tile gid="0"/>
   <tile gid="0"/>
   <tile gid="0"/>
   <tile gid="0"/>
   <tile gid="0"/>
   <tile gid="0"/>
   <tile gid="0"/>
   <tile gid="0"/>
   <tile gid="0"/>
   <tile gid="0"/>
   <tile gid="603"/>
   <tile gid="604"/>
   <tile gid="605"/>
   <tile gid="527"/>
   <tile gid="625"/>
   <tile gid="625"/>
   <tile gid="625"/>
   <tile gid="625"/>
   <tile gid="625"/>
   <tile gid="625"/>
   <tile gid="625"/>
   <tile gid="132"/>
   <tile gid="625"/>
   <tile gid="625"/>
   <tile gid="625"/>
   <tile gid="0"/>
   <tile gid="12"/>
   <tile gid="206"/>
   <tile gid="625"/>
   <tile gid="0"/>
   <tile gid="206"/>
   <tile gid="12"/>
   <tile gid="625"/>
   <tile gid="0"/>
   <tile gid="0"/>
   <tile gid="0"/>
   <tile gid="625"/>
   <tile gid="331"/>
   <tile gid="625"/>
   <tile gid="625"/>
   <tile gid="625"/>
   <tile gid="625"/>
   <tile gid="625"/>
   <tile gid="625"/>
   <tile gid="625"/>
   <tile gid="625"/>
   <tile gid="625"/>
   <tile gid="625"/>
   <tile gid="625"/>
   <tile gid="625"/>
   <tile gid="0"/>
   <tile gid="0"/>
   <tile gid="0"/>
   <tile gid="0"/>
   <tile gid="0"/>
   <tile gid="0"/>
   <tile gid="0"/>
   <tile gid="0"/>
   <tile gid="0"/>
   <tile gid="0"/>
   <tile gid="642"/>
   <tile gid="643"/>
   <tile gid="644"/>
   <tile gid="527"/>
   <tile gid="625"/>
   <tile gid="625"/>
   <tile gid="625"/>
   <tile gid="625"/>
   <tile gid="625"/>
   <tile gid="141"/>
   <tile gid="625"/>
   <tile gid="132"/>
   <tile gid="103"/>
   <tile gid="625"/>
   <tile gid="625"/>
   <tile gid="12"/>
   <tile gid="206"/>
   <tile gid="206"/>
   <tile gid="625"/>
   <tile gid="0"/>
   <tile gid="206"/>
   <tile gid="206"/>
   <tile gid="12"/>
   <tile gid="0"/>
   <tile gid="0"/>
   <tile gid="0"/>
   <tile gid="625"/>
   <tile gid="370"/>
   <tile gid="625"/>
   <tile gid="625"/>
   <tile gid="625"/>
   <tile gid="625"/>
   <tile gid="625"/>
   <tile gid="625"/>
   <tile gid="625"/>
   <tile gid="625"/>
   <tile gid="625"/>
   <tile gid="625"/>
   <tile gid="625"/>
   <tile gid="625"/>
   <tile gid="0"/>
   <tile gid="0"/>
   <tile gid="0"/>
   <tile gid="0"/>
   <tile gid="0"/>
   <tile gid="0"/>
   <tile gid="0"/>
   <tile gid="0"/>
   <tile gid="0"/>
   <tile gid="0"/>
   <tile gid="642"/>
   <tile gid="643"/>
   <tile gid="644"/>
   <tile gid="527"/>
   <tile gid="12"/>
   <tile gid="12"/>
   <tile gid="12"/>
   <tile gid="12"/>
   <tile gid="12"/>
   <tile gid="12"/>
   <tile gid="12"/>
   <tile gid="12"/>
   <tile gid="12"/>
   <tile gid="12"/>
   <tile gid="12"/>
   <tile gid="12"/>
   <tile gid="12"/>
   <tile gid="12"/>
   <tile gid="12"/>
   <tile gid="12"/>
   <tile gid="12"/>
   <tile gid="12"/>
   <tile gid="12"/>
   <tile gid="12"/>
   <tile gid="12"/>
   <tile gid="12"/>
   <tile gid="12"/>
   <tile gid="12"/>
   <tile gid="12"/>
   <tile gid="12"/>
   <tile gid="12"/>
   <tile gid="12"/>
   <tile gid="12"/>
   <tile gid="12"/>
   <tile gid="12"/>
   <tile gid="12"/>
   <tile gid="12"/>
   <tile gid="12"/>
   <tile gid="12"/>
   <tile gid="12"/>
   <tile gid="12"/>
   <tile gid="12"/>
   <tile gid="12"/>
   <tile gid="12"/>
   <tile gid="12"/>
   <tile gid="12"/>
   <tile gid="12"/>
   <tile gid="12"/>
   <tile gid="12"/>
   <tile gid="12"/>
   <tile gid="12"/>
   <tile gid="12"/>
   <tile gid="12"/>
   <tile gid="12"/>
  </data>
 </layer>
 <objectgroup name="Объекты">
  <object id="1" name="coin" gid="34" x="36" y="49" width="16" height="16"/>
  <object id="2" name="coin" gid="34" x="231.667" y="87.6667" width="16" height="16"/>
  <object id="3" name="block" x="0" y="144" width="800" height="16"/>
  <object id="4" name="player" gid="274" x="22" y="98" width="16" height="16"/>
  <object id="5" name="block" x="96.3334" y="97" width="47.3333" height="14"/>
  <object id="6" name="block" x="16" y="64" width="48" height="8"/>
  <object id="7" name="coin" gid="427" x="360" y="102" width="16" height="16"/>
  <object id="8" name="block" x="0" y="0" width="16" height="160"/>
  <object id="9" name="block" x="0" y="0" width="800" height="16"/>
  <object id="10" name="block" x="784" y="0" width="16" height="160"/>
  <object id="12" name="coin" gid="34" x="114" y="71" width="16" height="16"/>
  <object id="13" name="coin" gid="151" x="380" y="127" width="16" height="16"/>
  <object id="14" name="block" x="560" y="16" width="224" height="16"/>
  <object id="15" name="block" x="560" y="32" width="16" height="80"/>
  <object id="17" name="enemy" gid="217" x="426" y="99.3333" width="16" height="16"/>
  <object id="18" name="enemy" gid="217" x="460.333" y="143" width="16" height="16"/>
  <object id="19" name="enemy" gid="217" x="515" y="96" width="16" height="16"/>
  <object id="20" name="coin" gid="34" x="751" y="90" width="16" height="16"/>
  <object id="21" name="coin" gid="34" x="650" y="77" width="16" height="16"/>
  <object id="22" name="coin" gid="34" x="698" y="99" width="16" height="16"/>
  <object id="23" name="block" x="736" y="96" width="48" height="48"/>
  <object id="24" name="enemy" gid="31" x="728" y="62" width="16" height="16"/>
  <object id="25" name="block" x="0.666667" y="147" width="799.333" height="12.6667"/>
  <object id="106" name="enemy" gid="217" x="382.667" y="143.667" width="18.3333" height="16"/>
  <object id="107" name="enemy" gid="217" x="325.333" y="144.333" width="16" height="16"/>
  <object id="112" name="enemy" gid="217" x="225.333" y="143.667" width="16" height="16"/>
  <object id="115" name="enemy" gid="217" x="152.333" y="144.667" width="16" height="16"/>
  <object id="125" name="enemy" gid="217" x="241" y="144.333" width="16" height="16"/>
  <object id="126" x="116.667" y="110" width="5.33333" height="34"/>
  <object id="130" name="block" x="175.583" y="128.75" width="16.0833" height="14.75"/>
  <object id="131" name="block" x="255.083" y="97.5" width="17.0833" height="47"/>
  <object id="132" name="block" x="272.083" y="112.75" width="16.0833" height="30.75"/>
  <object id="133" name="block" x="287.208" y="128.375" width="16.0833" height="16"/>
  <object id="134" name="block" x="208.708" y="97.375" width="16.0833" height="47"/>
  <object id="135" name="block" x="192.208" y="112.875" width="16.0833" height="30.75"/>
 </objectgroup>
 <layer name="Слой тайлов 2" width="50" height="10" opacity="0.5">
  <data>
   <tile gid="0"/>
   <tile gid="0"/>
   <tile gid="0"/>
   <tile gid="0"/>
   <tile gid="0"/>
   <tile gid="0"/>
   <tile gid="0"/>
   <tile gid="0"/>
   <tile gid="0"/>
   <tile gid="0"/>
   <tile gid="0"/>
   <tile gid="0"/>
   <tile gid="0"/>
   <tile gid="0"/>
   <tile gid="0"/>
   <tile gid="0"/>
   <tile gid="0"/>
   <tile gid="0"/>
   <tile gid="0"/>
   <tile gid="0"/>
   <tile gid="0"/>
   <tile gid="0"/>
   <tile gid="0"/>
   <tile gid="0"/>
   <tile gid="0"/>
   <tile gid="0"/>
   <tile gid="0"/>
   <tile gid="0"/>
   <tile gid="0"/>
   <tile gid="0"/>
   <tile gid="0"/>
   <tile gid="0"/>
   <tile gid="0"/>
   <tile gid="0"/>
   <tile gid="0"/>
   <tile gid="0"/>
   <tile gid="0"/>
   <tile gid="0"/>
   <tile gid="0"/>
   <tile gid="0"/>
   <tile gid="0"/>
   <tile gid="0"/>
   <tile gid="0"/>
   <tile gid="0"/>
   <tile gid="0"/>
   <tile gid="0"/>
   <tile gid="0"/>
   <tile gid="0"/>
   <tile gid="0"/>
   <tile gid="0"/>
   <tile gid="0"/>
   <tile gid="0"/>
   <tile gid="0"/>
   <tile gid="0"/>
   <tile gid="0"/>
   <tile gid="0"/>
   <tile gid="0"/>
   <tile gid="0"/>
   <tile gid="0"/>
   <tile gid="0"/>
   <tile gid="0"/>
   <tile gid="0"/>
   <tile gid="0"/>
   <tile gid="0"/>
   <tile gid="0"/>
   <tile gid="0"/>
   <tile gid="0"/>
   <tile gid="0"/>
   <tile gid="0"/>
   <tile gid="0"/>
   <tile gid="0"/>
   <tile gid="0"/>
   <tile gid="0"/>
   <tile gid="0"/>
   <tile gid="0"/>
   <tile gid="0"/>
   <tile gid="0"/>
   <tile gid="0"/>
   <tile gid="0"/>
   <tile gid="0"/>
   <tile gid="0"/>
   <tile gid="0"/>
   <tile gid="0"/>
   <tile gid="0"/>
   <tile gid="0"/>
   <tile gid="0"/>
   <tile gid="0"/>
   <tile gid="0"/>
   <tile gid="0"/>
   <tile gid="0"/>
   <tile gid="0"/>
   <tile gid="0"/>
   <tile gid="0"/>
   <tile gid="0"/>
   <tile gid="0"/>
   <tile gid="0"/>
   <tile gid="0"/>
   <tile gid="0"/>
   <tile gid="0"/>
   <tile gid="0"/>
   <tile gid="0"/>
   <tile gid="0"/>
   <tile gid="0"/>
   <tile gid="0"/>
   <tile gid="0"/>
   <tile gid="0"/>
   <tile gid="0"/>
   <tile gid="0"/>
   <tile gid="0"/>
   <tile gid="0"/>
   <tile gid="0"/>
   <tile gid="0"/>
   <tile gid="0"/>
   <tile gid="0"/>
   <tile gid="0"/>
   <tile gid="0"/>
   <tile gid="0"/>
   <tile gid="0"/>
   <tile gid="0"/>
   <tile gid="0"/>
   <tile gid="0"/>
   <tile gid="0"/>
   <tile gid="0"/>
   <tile gid="0"/>
   <tile gid="0"/>
   <tile gid="0"/>
   <tile gid="0"/>
   <tile gid="0"/>
   <tile gid="0"/>
   <tile gid="0"/>
   <tile gid="0"/>
   <tile gid="0"/>
   <tile gid="0"/>
   <tile gid="0"/>
   <tile gid="0"/>
   <tile gid="0"/>
   <tile gid="123"/>
   <tile gid="123"/>
   <tile gid="123"/>
   <tile gid="123"/>
   <tile gid="123"/>
   <tile gid="123"/>
   <tile gid="123"/>
   <tile gid="123"/>
   <tile gid="123"/>
   <tile gid="123"/>
   <tile gid="123"/>
   <tile gid="123"/>
   <tile gid="123"/>
   <tile gid="0"/>
   <tile gid="0"/>
   <tile gid="0"/>
   <tile gid="0"/>
   <tile gid="0"/>
   <tile gid="0"/>
   <tile gid="0"/>
   <tile gid="0"/>
   <tile gid="0"/>
   <tile gid="0"/>
   <tile gid="0"/>
   <tile gid="0"/>
   <tile gid="0"/>
   <tile gid="0"/>
   <tile gid="0"/>
   <tile gid="0"/>
   <tile gid="0"/>
   <tile gid="0"/>
   <tile gid="0"/>
   <tile gid="0"/>
   <tile gid="0"/>
   <tile gid="0"/>
   <tile gid="0"/>
   <tile gid="0"/>
   <tile gid="0"/>
   <tile gid="0"/>
   <tile gid="0"/>
   <tile gid="0"/>
   <tile gid="0"/>
   <tile gid="0"/>
   <tile gid="0"/>
   <tile gid="0"/>
   <tile gid="0"/>
   <tile gid="0"/>
   <tile gid="0"/>
   <tile gid="0"/>
   <tile gid="0"/>
   <tile gid="123"/>
   <tile gid="123"/>
   <tile gid="123"/>
   <tile gid="123"/>
   <tile gid="123"/>
   <tile gid="123"/>
   <tile gid="123"/>
   <tile gid="123"/>
   <tile gid="123"/>
   <tile gid="123"/>
   <tile gid="123"/>
   <tile gid="123"/>
   <tile gid="123"/>
   <tile gid="0"/>
   <tile gid="0"/>
   <tile gid="0"/>
   <tile gid="0"/>
   <tile gid="0"/>
   <tile gid="0"/>
   <tile gid="0"/>
   <tile gid="0"/>
   <tile gid="0"/>
   <tile gid="0"/>
   <tile gid="0"/>
   <tile gid="0"/>
   <tile gid="0"/>
   <tile gid="0"/>
   <tile gid="0"/>
   <tile gid="0"/>
   <tile gid="0"/>
   <tile gid="0"/>
   <tile gid="0"/>
   <tile gid="0"/>
   <tile gid="0"/>
   <tile gid="0"/>
   <tile gid="0"/>
   <tile gid="0"/>
   <tile gid="0"/>
   <tile gid="0"/>
   <tile gid="0"/>
   <tile gid="0"/>
   <tile gid="0"/>
   <tile gid="0"/>
   <tile gid="0"/>
   <tile gid="0"/>
   <tile gid="0"/>
   <tile gid="0"/>
   <tile gid="0"/>
   <tile gid="0"/>
   <tile gid="0"/>
   <tile gid="123"/>
   <tile gid="123"/>
   <tile gid="123"/>
   <tile gid="123"/>
   <tile gid="123"/>
   <tile gid="123"/>
   <tile gid="123"/>
   <tile gid="123"/>
   <tile gid="123"/>
   <tile gid="123"/>
   <tile gid="123"/>
   <tile gid="123"/>
   <tile gid="123"/>
   <tile gid="0"/>
   <tile gid="0"/>
   <tile gid="0"/>
   <tile gid="0"/>
   <tile gid="0"/>
   <tile gid="0"/>
   <tile gid="0"/>
   <tile gid="0"/>
   <tile gid="0"/>
   <tile gid="0"/>
   <tile gid="0"/>
   <tile gid="0"/>
   <tile gid="0"/>
   <tile gid="0"/>
   <tile gid="0"/>
   <tile gid="0"/>
   <tile gid="0"/>
   <tile gid="0"/>
   <tile gid="0"/>
   <tile gid="0"/>
   <tile gid="0"/>
   <tile gid="0"/>
   <tile gid="0"/>
   <tile gid="0"/>
   <tile gid="0"/>
   <tile gid="0"/>
   <tile gid="0"/>
   <tile gid="0"/>
   <tile gid="0"/>
   <tile gid="0"/>
   <tile gid="0"/>
   <tile gid="0"/>
   <tile gid="0"/>
   <tile gid="0"/>
   <tile gid="0"/>
   <tile gid="0"/>
   <tile gid="0"/>
   <tile gid="123"/>
   <tile gid="123"/>
   <tile gid="123"/>
   <tile gid="123"/>
   <tile gid="123"/>
   <tile gid="123"/>
   <tile gid="123"/>
   <tile gid="123"/>
   <tile gid="123"/>
   <tile gid="123"/>
   <tile gid="123"/>
   <tile gid="123"/>
   <tile gid="123"/>
   <tile gid="0"/>
   <tile gid="0"/>
   <tile gid="0"/>
   <tile gid="0"/>
   <tile gid="0"/>
   <tile gid="0"/>
   <tile gid="0"/>
   <tile gid="0"/>
   <tile gid="0"/>
   <tile gid="0"/>
   <tile gid="0"/>
   <tile gid="0"/>
   <tile gid="0"/>
   <tile gid="0"/>
   <tile gid="0"/>
   <tile gid="0"/>
   <tile gid="0"/>
   <tile gid="0"/>
   <tile gid="0"/>
   <tile gid="0"/>
   <tile gid="0"/>
   <tile gid="0"/>
   <tile gid="0"/>
   <tile gid="0"/>
   <tile gid="0"/>
   <tile gid="0"/>
   <tile gid="0"/>
   <tile gid="0"/>
   <tile gid="0"/>
   <tile gid="0"/>
   <tile gid="0"/>
   <tile gid="0"/>
   <tile gid="0"/>
   <tile gid="0"/>
   <tile gid="0"/>
   <tile gid="0"/>
   <tile gid="0"/>
   <tile gid="123"/>
   <tile gid="123"/>
   <tile gid="123"/>
   <tile gid="123"/>
   <tile gid="123"/>
   <tile gid="123"/>
   <tile gid="123"/>
   <tile gid="123"/>
   <tile gid="123"/>
   <tile gid="123"/>
   <tile gid="123"/>
   <tile gid="123"/>
   <tile gid="123"/>
   <tile gid="0"/>
   <tile gid="0"/>
   <tile gid="0"/>
   <tile gid="0"/>
   <tile gid="0"/>
   <tile gid="0"/>
   <tile gid="0"/>
   <tile gid="0"/>
   <tile gid="0"/>
   <tile gid="0"/>
   <tile gid="0"/>
   <tile gid="0"/>
   <tile gid="0"/>
   <tile gid="0"/>
   <tile gid="0"/>
   <tile gid="0"/>
   <tile gid="0"/>
   <tile gid="0"/>
   <tile gid="0"/>
   <tile gid="0"/>
   <tile gid="0"/>
   <tile gid="0"/>
   <tile gid="0"/>
   <tile gid="0"/>
   <tile gid="0"/>
   <tile gid="0"/>
   <tile gid="0"/>
   <tile gid="0"/>
   <tile gid="0"/>
   <tile gid="0"/>
   <tile gid="0"/>
   <tile gid="0"/>
   <tile gid="0"/>
   <tile gid="0"/>
   <tile gid="0"/>
   <tile gid="0"/>
   <tile gid="0"/>
   <tile gid="123"/>
   <tile gid="123"/>
   <tile gid="123"/>
   <tile gid="123"/>
   <tile gid="123"/>
   <tile gid="123"/>
   <tile gid="123"/>
   <tile gid="123"/>
   <tile gid="123"/>
   <tile gid="123"/>
   <tile gid="123"/>
   <tile gid="123"/>
   <tile gid="123"/>
   <tile gid="0"/>
   <tile gid="0"/>
   <tile gid="0"/>
   <tile gid="0"/>
   <tile gid="0"/>
   <tile gid="0"/>
   <tile gid="0"/>
   <tile gid="0"/>
   <tile gid="0"/>
   <tile gid="0"/>
   <tile gid="0"/>
   <tile gid="0"/>
   <tile gid="0"/>
   <tile gid="0"/>
   <tile gid="0"/>
   <tile gid="0"/>
   <tile gid="0"/>
   <tile gid="0"/>
   <tile gid="0"/>
   <tile gid="0"/>
   <tile gid="0"/>
   <tile gid="0"/>
   <tile gid="0"/>
   <tile gid="0"/>
   <tile gid="0"/>
   <tile gid="0"/>
   <tile gid="0"/>
   <tile gid="0"/>
   <tile gid="0"/>
   <tile gid="0"/>
   <tile gid="0"/>
   <tile gid="0"/>
   <tile gid="0"/>
   <tile gid="0"/>
   <tile gid="0"/>
   <tile gid="0"/>
   <tile gid="0"/>
   <tile gid="123"/>
   <tile gid="123"/>
   <tile gid="123"/>
   <tile gid="123"/>
   <tile gid="123"/>
   <tile gid="123"/>
   <tile gid="123"/>
   <tile gid="123"/>
   <tile gid="123"/>
   <tile gid="123"/>
   <tile gid="123"/>
   <tile gid="123"/>
   <tile gid="123"/>
   <tile gid="0"/>
   <tile gid="0"/>
   <tile gid="0"/>
   <tile gid="0"/>
   <tile gid="0"/>
   <tile gid="0"/>
   <tile gid="0"/>
   <tile gid="0"/>
   <tile gid="0"/>
   <tile gid="0"/>
   <tile gid="0"/>
   <tile gid="0"/>
   <tile gid="0"/>
   <tile gid="0"/>
   <tile gid="0"/>
   <tile gid="0"/>
   <tile gid="0"/>
   <tile gid="0"/>
   <tile gid="0"/>
   <tile gid="12"/>
   <tile gid="12"/>
   <tile gid="0"/>
   <tile gid="0"/>
   <tile gid="0"/>
   <tile gid="0"/>
   <tile gid="0"/>
   <tile gid="0"/>
   <tile gid="0"/>
   <tile gid="0"/>
   <tile gid="0"/>
   <tile gid="0"/>
   <tile gid="0"/>
   <tile gid="0"/>
   <tile gid="0"/>
   <tile gid="0"/>
   <tile gid="0"/>
   <tile gid="0"/>
   <tile gid="0"/>
   <tile gid="0"/>
   <tile gid="0"/>
   <tile gid="0"/>
   <tile gid="0"/>
   <tile gid="0"/>
   <tile gid="0"/>
   <tile gid="0"/>
   <tile gid="0"/>
   <tile gid="0"/>
   <tile gid="0"/>
   <tile gid="0"/>
   <tile gid="0"/>
   <tile gid="0"/>
  </data>
 </layer>
</map>
